X:224
M:4/4
L:1/4
K:Bb
F D/ E/ F/ F/ F | B A/ G/ G F | F G/ A/ B c/ d/ | c B/ G/ F z | F D/ E/ F/ F/ F | B A/ G/ G F | F G/ A/ B c/ d/ | c B/ A/ B2 | c B/ c/ d3/4 c/4 B | c B/ c/ d B | !sintro!B A/ G/ F/ B/ d | c B/ A/ B2 !eintro!|]
